X:1
T:John Anderson (2te Bearbeitung)
T:Robert Schumann Op. 145 No. 4
T:Robert Burns (Deutsch von Wilhelm Gerhard)
T:John Anderson (2te Bearbeitung)
T:Copyright © CPDL 2018 Please forward corrections &c to RichardMix@hotmail.com
T:Copyright © CPDL 2018 Please forward corrections &amp;c to RichardMix@hotmail.com
T:Copyright © CPDL 2018 Please forward corrections &amp;c to RichardMix@hotmail.com
C:Robert Schumann
C:Op. 145 No. 4
Z:Robert Burns
Z:(Deutsch von Wilhelm Gerhard)
Z:Copyright © CPDL 2018
Z:Please forward corrections &c to RichardMix@hotmail.com
%%score [ ( 1 2 ) ( 3 4 ) ]
L:1/8
Q:1/4=60
M:3/4
K:E
V:1 treble nm="P1" snm="S."
V:2 treble 
V:3 bass nm="P2" snm="B."
V:4 bass 
V:1
!p!"^Langsam." [EB]2 | [Ec]>[Ec] [Ec]2!<)!!<(!!>)!!>(!{c} [Ee]2 | [EB]4 [EB]2 | %3
w: 1.~John|An- der- son, *|Lieb! wir|
w: 2.~John|An- der- son, *|Lieb! wir|
 [EG]>[EA] [EB]3 [Ec] | c2 F2 (FG) | [EB]3 [EA] [Ec][EA] |{D} F4 [DB]2 | E>E (E B2) A | %8
w: ha- ben uns ge-|se- hen, wie _|ra- ben- schwarz dein|* die|Stir- ne glatt * und|
w: klom- men froh berg-|auf _ und _|man- chen hei- tern|* be-|grüs- sten wir * im|
 [EG]4 [EG]2 | [Ec]>[Ec] [Ec]2!<)!!<(!!>)!!>(! [Fd]2 | [DB]4 [DB]2 | [EF]>[FA] [EG]2 [DB]2 | %12
w: schön, John|An- der- son, mein|Lieb! Nun|Glät- te nicht und|
w: lauf! John|An- der- son, mein|Lieb! Nun|ab- wärts Hand in|
 (([EF]>[FA]) [EG]3) [EG] | [Ee]3 [Fd] [Gc][GB] | [F^A]4!p! [F=A]2 | [EG]>[Ec] [EF]2 A2 | %16
w: Lo- * cke der|schö- nen Stir- ne|blieb, doch|seg- ne Gott dein|
w: Hand, _ _ froh|wie's berg- auf uns|trieb, und|un- ten sel'- ges|
 [EG]>[Ec] [DF]2 [CE]2 |!pp! [Ec]>[Ec] [Ec]2!<(!({c} e!<)!!>)!!>(!c) | !fermata![EB]4 x2 |] %19
w: schee- ig Haupt, John|An- der- son, * *|Lieb!|
w: Schla- fen- geh'n, John|An- der- son, * *|Lieb!|
V:2
 x2 | x6 | x6 | x6 | (E2 E2) E2 | x6 | D4 x2 | x2 E2 F2 | x6 | x6 | x6 | x6 | x6 | x6 | x6 | %15
 z4 (CD) | x6 | x4 E2 | x6 |] %19
V:3
!p! [E,G,]2 | [B,,A,]>[B,,A,] [B,,A,]2!>)!!>(!!<)!!<(! [B,,A,]2 | [E,G,]4 [E,G,]2 | %3
 E,>[E,F,] [E,G,]3 [A,,A,] | ([A,,A,]2 [A,C]2) C2 | [F,C]3 [F,C] [F,C][A,C] | B,4 B,2 | %7
 [C,B,]>[C,B,] [C,B,]2 [D,B,]2 | [E,B,]4 [E,B,]2 | [F,,B,]>[F,,B,] B,2!<(!!>(! (G,!<)!!>)!^A,) | %10
 [B,,B,]4 [B,,B,]2 | [C,B,]>[D,B,] [E,B,]2 [B,,B,]2 | (B,2 B,3) [E,B,] | %13
 [C,C]3 [D,^B,] [E,C][^E,C] | [F,C]4!p! [D,=B,]2 | [E,B,]>[A,,A,] [B,,A,]2 (F,B,) | %16
 [E,B,]>[A,,A,] [B,,A,]2 [C,G,]2 |!pp! [B,,A,]>[B,,A,] [B,,A,]2!>)!!>(!!<)!!<(! [B,,A,]2 | %18
 !fermata![E,G,]4 x2 |] %19
V:4
 x2 | x6 | x6 | x6 | x4 (A,G,) | x6 | x6 | x6 | x6 | x2 F,,2 F,,2 | x6 | x6 | ((C,>D,) E,3) x | %13
 x6 | x6 | x4 B,,2 | x6 | x6 | x6 |] %19

